X:1
T:Eigenbrook, LM
T:Eigenbrook, LM
T:From The Hallelujah, 1849
T:Public Domain Courtesy of the Cyber Hymnal™
C:From The Hallelujah, 1849
Z:Public Domain
Z:Courtesy of the Cyber Hymnal™
%%score ( 1 2 ) 3
L:1/8
Q:1/4=118
M:3/2
K:E
V:1 treble 
V:2 treble 
V:3 bass 
V:1
 [EG]2 [EG]2 [EG]2 | [FB]6 [EG]2 [EF]2 [DA]2 | [EG]6 E2 [_CE]2 [CE]2 | [B,E]6 [EG]2 [EF]2 [DA]2 | %4
 [EG]6 [EG]2 [EA]2 [Ec]2 | [EB]6 [Ee]2 [Fd]2 [Gc]2 | [FB]6 [EG]2 [FG]2 [EG]2 | %7
 [EB]6 [EG]2 [EF]2 [DA]2 | [EG]6 |] %9
V:2
 x6 | x12 | x6 E2 x4 | x12 | x12 | x12 | x12 | x12 | x6 |] %9
V:3
 [E,B,]2 [G,B,]2 [E,B,]2 | [D,B,]6 [E,B,]2 [A,,C]2 [B,,B,]2 | [E,B,]6 [C,A,]2 [G,,B,]2 [A,,A,]2 | %3
 [B,,G,]6 [B,,B,]2 [B,,B,]2 [B,,B,]2 | [E,B,]6 [C,C]2 [C,A,]2 [A,,A,]2 | %5
 [E,G,]6 [C,G,]2 [F,A,]2 [E,G,]2 | [D,B,]6 [E,B,]2 [D,^B,]2 [C,C]2 | %7
 [B,,G,]6 [B,,B,]2 [B,,C]2 [B,,B,]2 | [E,B,]6 |] %9

